FINK
CUT[MIT FROMMEN WUENSCHEN GRUESS ICH IHN]
REG[Europa, Mitteleuropa, Deutschland]
KEY[F0287  08  C 4/4]
MEL[-5_  3_2_1_-7_  -6_.-6-6_
    2_  4_3_2_1_  -7_0__
    -7_  2_.1-7_-7_  1_2_3_
    1_  2_.21_-7_  1__0_ //] >>
FCT[Jugend - Lied, religioes, Neujahr]
